img/menu.svg

<svg width="24" height="16" viewBox="0 0 24 16" fill="none" xmlns="http://www.w3.org/2000/svg">
<path d="M22.7333 6.66667H1.26667C0.567106 6.66667 0 7.23378 0 7.93334V8.06667C0 8.76623 0.567106 9.33334 1.26667 9.33334H22.7333C23.4329 9.33334 24 8.76623 24 8.06667V7.93334C24 7.23378 23.4329 6.66667 22.7333 6.66667Z" fill="#35414B"/>
<path d="M22.7333 13.3333H1.26667C0.567106 13.3333 0 13.9004 0 14.6V14.7333C0 15.4329 0.567106 16 1.26667 16H22.7333C23.4329 16 24 15.4329 24 14.7333V14.6C24 13.9004 23.4329 13.3333 22.7333 13.3333Z" fill="#35414B"/>
<path d="M22.7333 0H1.26667C0.567106 0 0 0.567106 0 1.26667V1.4C0 2.09956 0.567106 2.66667 1.26667 2.66667H22.7333C23.4329 2.66667 24 2.09956 24 1.4V1.26667C24 0.567106 23.4329 0 22.7333 0Z" fill="#35414B"/>
</svg>

<svg width="24" height="16" fill="none" xmlns="http://www.w3.org/2000/svg"><path d="M22.733 6.667H1.267C.567 6.667 0 7.234 0 7.933v.134c0 .7.567 1.266 1.267 1.266h21.466c.7 0 1.267-.567 1.267-1.266v-.134c0-.7-.567-1.266-1.267-1.266ZM22.733 13.333H1.267C.567 13.333 0 13.9 0 14.6v.133C0 15.433.567 16 1.267 16h21.466c.7 0 1.267-.567 1.267-1.267V14.6c0-.7-.567-1.267-1.267-1.267ZM22.733 0H1.267C.567 0 0 .567 0 1.267V1.4c0 .7.567 1.267 1.267 1.267h21.466C23.433 2.667 24 2.1 24 1.4v-.133C24 .567 23.433 0 22.733 0Z" fill="#35414B"/></svg>
